Evento_Azul_COR_para_usar_com_Auto.xmp
<x:xmpmeta xmlns:x="adobe:ns:meta/" x:xmptk="Adobe XMP Core 5.6-c140 79.160451, 2017/05/06-01:08:21">
 <rdf:RDF xmlns:rdf="http://www.w3.org/1999/02/22-rdf-syntax-ns#">
  <rdf:Description rdf:about=""
    xmlns:crs="http://ns.adobe.com/camera-raw-settings/1.0/"
    crs:PresetType="Normal"
    crs:ClusterUUID="ED8CA458ED1348C0AC6045467FC89623"
    crs:UUID="7B3F2A1C9D4E4F0AB1C2D3E4F5061728"
    crs:SupportsAmount2="True"
    crs:SupportsColor="True"
    crs:SupportsMonochrome="True"
    crs:SupportsHighDynamicRange="True"
    crs:SupportsNormalDynamicRange="True"
    crs:SupportsSceneReferred="True"
    crs:SupportsOutputReferred="True"
    crs:CameraModelRestriction=""
    crs:Copyright=""
    crs:ContactInfo=""
    crs:Version="15.0"
    crs:ProcessVersion="11.0"
    crs:Texture="+8"
    crs:Clarity2012="+8"
    crs:Dehaze="+7"
    crs:Vibrance="+8"
    crs:Saturation="-3"
    crs:HueAdjustmentRed="+4"
    crs:HueAdjustmentOrange="+6"
    crs:HueAdjustmentYellow="-12"
    crs:HueAdjustmentGreen="-20"
    crs:HueAdjustmentAqua="-8"
    crs:HueAdjustmentBlue="+6"
    crs:HueAdjustmentPurple="+4"
    crs:HueAdjustmentMagenta="0"
    crs:SaturationAdjustmentRed="+4"
    crs:SaturationAdjustmentOrange="-10"
    crs:SaturationAdjustmentYellow="-16"
    crs:SaturationAdjustmentGreen="-28"
    crs:SaturationAdjustmentAqua="+12"
    crs:SaturationAdjustmentBlue="+26"
    crs:SaturationAdjustmentPurple="+10"
    crs:SaturationAdjustmentMagenta="0"
    crs:LuminanceAdjustmentRed="+4"
    crs:LuminanceAdjustmentOrange="+9"
    crs:LuminanceAdjustmentYellow="-6"
    crs:LuminanceAdjustmentGreen="-8"
    crs:LuminanceAdjustmentAqua="-6"
    crs:LuminanceAdjustmentBlue="-14"
    crs:LuminanceAdjustmentPurple="-4"
    crs:LuminanceAdjustmentMagenta="0"
    crs:SplitToningShadowHue="220"
    crs:SplitToningShadowSaturation="16"
    crs:SplitToningHighlightHue="42"
    crs:SplitToningHighlightSaturation="10"
    crs:SplitToningBalance="-10"
    crs:ColorGradeMidtoneHue="220"
    crs:ColorGradeMidtoneSat="6"
    crs:ColorGradeMidtoneLum="0"
    crs:ColorGradeShadowLum="0"
    crs:ColorGradeHighlightLum="0"
    crs:ColorGradeBlending="50"
    crs:ColorGradeGlobalHue="0"
    crs:ColorGradeGlobalSat="0"
    crs:ColorGradeGlobalLum="0"
    crs:CameraProfile="Adobe Color"
    crs:ShadowTint="+5"
    crs:RedHue="+5"
    crs:RedSaturation="+6"
    crs:GreenHue="-12"
    crs:GreenSaturation="+4"
    crs:BlueHue="+6"
    crs:BlueSaturation="+18"
    crs:ConvertToGrayscale="False"
    crs:HasSettings="True">
   <crs:Name>
    <rdf:Alt>
     <rdf:li xml:lang="x-default">Evento Azul - COR (usar com Auto)</rdf:li>
    </rdf:Alt>
   </crs:Name>
   <crs:ShortName>
    <rdf:Alt>
     <rdf:li xml:lang="x-default">Evento Azul COR</rdf:li>
    </rdf:Alt>
   </crs:ShortName>
   <crs:Group>
    <rdf:Alt>
     <rdf:li xml:lang="x-default">Presets Danny</rdf:li>
    </rdf:Alt>
   </crs:Group>
   <crs:ToneCurvePV2012>
    <rdf:Seq>
     <rdf:li>0, 0</rdf:li>
     <rdf:li>34, 22</rdf:li>
     <rdf:li>128, 128</rdf:li>
     <rdf:li>220, 226</rdf:li>
     <rdf:li>255, 252</rdf:li>
    </rdf:Seq>
   </crs:ToneCurvePV2012>
   <crs:ToneCurvePV2012Red>
    <rdf:Seq>
     <rdf:li>0, 6</rdf:li>
     <rdf:li>128, 128</rdf:li>
     <rdf:li>255, 250</rdf:li>
    </rdf:Seq>
   </crs:ToneCurvePV2012Red>
   <crs:ToneCurvePV2012Green>
    <rdf:Seq>
     <rdf:li>0, 3</rdf:li>
     <rdf:li>128, 128</rdf:li>
     <rdf:li>255, 252</rdf:li>
    </rdf:Seq>
   </crs:ToneCurvePV2012Green>
   <crs:ToneCurvePV2012Blue>
    <rdf:Seq>
     <rdf:li>0, 14</rdf:li>
     <rdf:li>128, 130</rdf:li>
     <rdf:li>255, 244</rdf:li>
    </rdf:Seq>
   </crs:ToneCurvePV2012Blue>
  </rdf:Description>
 </rdf:RDF>
</x:xmpmeta>
